X: 585
T: Gallopede
B: jims roots
M:4/4
R: Reel
Q: 1/4=100
K:G
V:1 
dc| "G"B2Bc "D"A2AB|"G"G2 G2 G2AB|"C (Am)"cBcd edcB|"D"A2A2 A2dc|
"G"B2Bc "D"A2AB|"G (Em)"G2G2 G2AB|"C (Am)"cBAG "D"FGAF|"G"G2G2 G2:|
dc| "G"B2gf "C"e2ed|"D"dcBc A2dc|"G (Em)"d2gf "C (Am)"edcB|"D"A2A2 A2dc|
"G (Em)"B2gf "C (Am)"e2ed|"D"dcBc A2dc|"G"BdcB "D"AcBA|"G"G2G2 G2||
Bc| "G"d2d2 d2g2|d2d2 d2g2|d2d2 "C (Am)"edcB|"D"A2A2 A2Bc|
"G"d2d2 d2g2|d2d2 d2g2|"C (Am)"edcB "D"dcBA|"G"G2G2 G2 |]
% abcbook-tune_id 6298c25dfb77c194e920a60e


% abcbook-boost 0
% abcbook-tablature 
% abcbook-transpose 
% abcbook-lastupdated 1654178398143
% abcbook-soundfonts 
% abcbook-repeats 1


